X: 18580
T: I Ne'er Shall Wean Her
R: jig
M: 6/8
K: Bminor
|:~F3 FED|FAc d2c|~B3 BAB|def f2e|
def a2b|afe d2e|fbf afe|1 dBB BAG:|2 dBB baf||
~a3 afe|faa afa|~b3 bab|c'ba ~b3|
def a2b|afe d2e|fbf afe|dBB baf|
~a3 afe|faa afa|~b3 bab|c'ba b2c'|
d'3 c'3|baf d2e|~f3 efe|dBB BAG||

